X:4029
T:Drummond Castle
R:Jig
C:Trad.
O:Scotland
Z:Paul Hardy's Session Tunebook 2015 (see www.paulhardy.net). Creative Commons cc by-nc-sa licenced.
M:6/8
L:1/8
Q:3/8=100
K:Am
E|"Am"A>BA a3|a>ge "G"g3|"C"c2c e>dc|"G"B>dg dBG|
"Am"A>BA a3|a>ge "G"g3|"C"e>ge "G"deg|"Em"edB "Am"A2:|
|:"G"B|"C"c2c c>ec|"G"d2d d>ed|"Am"c2c e>dc|"G"B>dg dBG|
"C"c2c e>dc|"G"d>eg "F"a2g|"C"e>ge "G"deg|"Em"edB "Am"A2:|

